docs/.gitbook/assets/icon-swatch-16@light.svg

<svg width="32" height="32" viewBox="0 0 16 16" fill="none" xmlns="http://www.w3.org/2000/svg">
<rect x="0" y="0" width="16" height="16" fill="#fff"/>
<path fill-rule="evenodd" clip-rule="evenodd" d="M1 1.75C1 1.33579 1.33579 1 1.75 1H6.25C6.66421 1 7 1.33579 7 1.75V12.25C7 13.7688 5.76878 15 4.25 15H3.75C2.23122 15 1 13.7688 1 12.25V1.75ZM2.5 2.5V5H5.5V2.5H2.5ZM5.5 6.5H2.5V9H5.5V6.5ZM5.5 10.5H2.5V12.25C2.5 12.9404 3.05964 13.5 3.75 13.5H4.25C4.94036 13.5 5.5 12.9404 5.5 12.25V10.5ZM10.7197 1.21967C11.0126 0.926777 11.4874 0.926777 11.7803 1.21967L14.7803 4.21967C15.0732 4.51256 15.0732 4.98744 14.7803 5.28033L9.28033 10.7803C8.98744 11.0732 8.51256 11.0732 8.21967 10.7803C7.92678 10.4874 7.92678 10.0126 8.21967 9.71967L13.1893 4.75L11.25 2.81066L9.28033 4.78033C8.98744 5.07322 8.51256 5.07322 8.21967 4.78033C7.92678 4.48744 7.92678 4.01256 8.21967 3.71967L10.7197 1.21967Z" fill="#000"/>
</svg>

<svg xmlns="http://www.w3.org/2000/svg" width="32" height="32" fill="none" viewBox="0 0 16 16"><path fill="#fff" d="M0 0h16v16H0z"/><path fill="#000" fill-rule="evenodd" d="M1 1.75A.75.75 0 0 1 1.75 1h4.5a.75.75 0 0 1 .75.75v10.5A2.75 2.75 0 0 1 4.25 15h-.5A2.75 2.75 0 0 1 1 12.25zm1.5.75V5h3V2.5zm3 4h-3V9h3zm0 4h-3v1.75c0 .69.56 1.25 1.25 1.25h.5c.69 0 1.25-.56 1.25-1.25zm5.22-9.28a.75.75 0 0 1 1.06 0l3 3a.75.75 0 0 1 0 1.06l-5.5 5.5a.75.75 0 1 1-1.06-1.06l4.97-4.97-1.94-1.94-1.97 1.97a.75.75 0 0 1-1.06-1.06z" clip-rule="evenodd"/></svg>
